X:89
T:Scotch Cap. (p)1651.PLFD.089
T:Edinburgh Castle. (p)1651.PLFD.089
M:6/4
L:1/4
Q:3/4=90
S:Playford, Dancing Master,1st Ed.,1651.
O:England
H:1651.
Z:Chris Partington.
K:C
D2 D d2 d|e2 d c2 A|B2 e B2 G|1B3 d3:|2B3d2|
|:d/e/|f2 A A2 d/e/|f2 A A2 d/e/|f2 A A2 F|A3 d3|
B2 B A2 F|G2 G d2 d|B2 B A F2|1E3D2:|2E3 D3:|
